X: 1567
T: Jack Guthridge's Schottische
B: australian traditional tunes wiki
M:4/4
L:1/8
R: Schottische
Q: 1/4=100
K:G
V:1 
"G"B2B2 "D7"A2A2|"G"B2B2 G3F|G2G2G2-G>B|"D7"A2A2A2A>B|
"C"c2c2 "G"B2B2|"C"c>B c>B"D7"A3c|"G"d>B "D7"c>A "G"B>G "D7"A>F|"G"G2G2G2A>A||
"G"G2G2G3F|"C"E2E2E3B|"Am"c2c2c3B|"D7"A2A2A3A|
"G"B2B2B3D|"G7"G>D G>F "C"E3c|"G"d>B "D7"c>A "G"B>G "D7"A>F|"G"G2G2G4||
% abcbook-tune_id 6342d53adfd61d26da381ec2


% abcbook-boost 0
% abcbook-tablature 
% abcbook-transpose 
% abcbook-lastupdated 1665324371419
% abcbook-soundfonts 
% abcbook-repeats 1
% NFF Book 2009

